!!!COM: Martin, Frank
!!!OTL: Der Cornet, "Die Weise von Liebe und Tod des Cornets Christoph Rilke" d'après Rainer Maria Rilke (The Cornet, "Lay of Love and Death of Cornet Christopher Rilke" by Rainer Maria Rilke) for Alto Solo and Small Orchestra
!!!OMV: No. 6: Ein Tag durch den Tross (A Day Among the Army Train)
!!!example: 558
!!!work: Mai-24
**kern	**kern	**dynam	**kern	**kern
*part3	*part3	*part3	*part2	*part1
*staff4	*staff3	*	*staff2	*staff1
*I"Piano	*	*	*I"INSTRUMENT???	*I"Low Voice
*I'Pno.	*	*	*I'?	*I'Voice
*clefF4	*clefG2	*	*clefG2	*clefG2
*k[]	*k[]	*	*k[]	*k[]
*C:	*C:	*	*C:	*C:
*M3/4	*M3/4	*	*M3/4	*M3/4
*MM121	*MM121	*	*MM121	*MM121
=66	=66	=66	=66	=66
*^	*	*	*^	*
4C-X' 4E-X 4G-X 4B-X	4AAA-X' 4EE-X	4%3r	.	2.eee-X	8e-XL	4%3r
.	.	.	.	.	8dJ	.
4r	4r	.	.	.	8fL	.
.	.	.	.	.	8g-XJ	.
4C- 4E- 4G- 4B-	4AAA- 4EE-	.	.	.	8aL	.
.	.	.	.	.	8B-XJ	.
*	*	*	*	*v	*v	*
=67	=67	=67	=67	=67	=67
(<4C-X 4E-X 4G-X 4B-X	4AAA-X 4EE-X	4%3r	<	4%3r	4%3r
4.F 4.An 4.cn 4.en)	4.DD 4.AAn	.	.	.	.
8r	8r	.	[	.	.
=68	=68	=68	=68	=68	=68
(<4C-X 4E-X 4G-X 4B-X	4AAA-X 4EE-X	4%3r	<	4%3r	4%3r
4.F 4.An 4.cn 4.en)	4.DD 4.AAn	.	.	.	.
8r	8r	.	[	.	.
*v	*v	*	*	*	*
=69	=69	=69	=69	=69
!	!LO:TX:i:t=meno	!	!	!
4EE-X' 4BB-X	4G-X' 4B-X 4d-X 4f	p	8r	4b-X
.	.	.	8b-X	.
4r	4r	.	8b-L	4b-
.	.	.	8aJ	.
4EE-' 4BB-	4G-' 4B- 4d- 4f	.	8aL	4b-
.	.	.	8AJ	.
=70	=70	=70	=70	=70
!	!LO:TX:i:t=crescendo	!	!	!
4r	4r	.	8AL	2f
.	.	.	8AJ	.
4DD' 4AA	4F' 4A 4c 4e	.	8g#XL	.
.	.	.	8AJ	.
4r	4r	.	8AL	4f
.	.	.	8g#J	.
=71	=71	=71	=71	=71
!	!	!	!	!LO:TX:i:t=poco a poco animando
4DD-X' 4AA-X	4F-X' 4A-X 4c-X 4e-X	.	8r	[2.a-X
.	.	.	8Gn	.
4DD-' 4AA-	4F-' 4A- 4c- 4e-	.	8GL	.
.	.	.	8B-XJ	.
4r	4r	.	8B-L	.
.	.	.	8BnJ	.
=72	=72	=72	=72	=72
4DD-X' 4AA-X	4F-X' 4A-X 4c-X 4e-X	.	8dL	4a-]
.	.	.	8f#XJ	.
4DD-' 4AA-	4F-' 4A- 4c- 4e-	.	8f#L	4r
.	.	.	8gJ	.
4r	4r	.	8b-XL	4a-X
.	.	.	8bnJ	.
=73	=73	=73	=73	=73
*^	*	*	*	*
4E-X' 4G 4B-X 4dn	4CC' 4GG	4%3r	.	8ddL	4b-X
.	.	.	.	8f#XJ	.
4r	4r	.	.	8GL	4b-
.	.	.	.	8f#J	.
4E-' 4G 4B- 4d	4CC' 4GG	.	<	8ddL	4b-
.	.	.	.	8dd-XJ	.
=74	=74	=74	=74	=74	=74
(<4.D 4.F#X 4.A 4.c#X	4.BBBn 4.FF#X	4%3r	.	8fnL	4dd-X
.	.	.	.	8dd-XJ	.
.	.	.	.	8dd-L	4dd-
4.D-X 4.Fn 4.A-X 4.cn)	4.BBB-X 4.FFn	.	[	8ccJ	.
.	.	.	.	8eeL	4dd-
.	.	.	.	8ggJ	.
=75	=75	=75	=75	=75	=75
!	!	!LO:TX:i:t=crescendo	!	!	!
4Cn' 4E 4G 4Bn	4AAAn' 4EE	4%3r	.	8cccL	4een
.	.	.	.	8bbJ	.
4r	4r	.	.	8dd#XL	4ee
.	.	.	.	8ccJ	.
4C' 4E 4G 4B	4AAA' 4EE	.	.	8bL	4r
.	.	.	.	8d#XJ	.
*v	*v	*	*	*	*
=	=	=	=	=
*-	*-	*-	*-	*-
!!!system-decoration: [(s1,s2)][({(s3,s4)})]
!!!RDF**kern: < = below
!!!CDT: 1890/09/15-1974/11/21
!!!CBL: Geneva, Switzerland
!!!CDL: Naarden, Netherlands
!!!CNT: Swiss
!!!AGN: Vocal; Solo
!!!MCN: Sacher, Paul
!!!MDT: 1945/02/09
!!!MGN: Basel Chamber Orchestra
!!!MLC: Basel, Switzerland
!!!MPD: 1945
!!!MPN: Cavelti, Elsa
!!!ODT: 1942
!!!PDT: 1944
!!!excerpt-start-measure: 66
!!!excerpt-end-measure: 72
!!!excerpt-start-time: 1:04
!!!excerpt-end-time: 1:12
!!!EEV: 2020/01/22
!!!ONB: Converted from MusicXML on 2020/01/22
